**kern	**silbe
*ICvox	*
*F:	*
*M4/4	*
*clefGv2	*
r;	.
=1	=1
1r	.
=2	=2
1r	.
=3	=3
1r	.
=4	=4
1r	.
=5	=5
4r	.
4D	Last
4F	night
4G	your
=6	=6
8A	sha-
8[A	-dow
8A]	_
8[G	fell
4G]	_
8F	u-
8[G	-pon
=7	=7
4G]	_
4E	my
8E	lone-
4D	-ly
8[E	room
=8	=8
8.E]	_
16r	.
4r	.
2r	.
=9	=9
4r	.
4D	I
4F	touched
8G	your
8G	gol
=10	=10
8A	_
8[A	den
8A]	_
8[G	hair
4G]	_
4F	and
=11	=11
4G	taste-
4E	-d
8E	your
8[D	per
8D]	_
8[E	fume
=12	=12
8.E]	_
16r	.
4r	.
2r	.
=13	=13
4r	.
8B-	Your
8[B-	eyes
4B-]	_
4B-	were
=14	=14
4B-	filled
8B-	with
8[c	love
4c]	_
8B-	the
8[A	way
=15	=15
8A]	_
8[A	they
4A]	_
4F	used
8G	to
8[A	be
=16	=16
4A]	_
4r	.
2r	.
=17	=17
4r	.
4B-	Your
8B-	gen-
8[B-	-tle
8B-]	_
8[B-	hand
=18	=18
4B-]	_
4B-	reached
4c	out
8B-	to
8[B-	com
=19	=19
8B-]	_
8[A	fort
8A]	_
8[A	me
2A]	_
=20	=20
2B	_
2r	.
=21	=21
1r	.
=22	=22
2r	.
8d	Then
8d	came
8d	the
8[d	dawn
=23	=23
8d]	_
8r	.
4r	.
2r	.
=24	=24
2r	.
8d	and
8d	you
8d	were
8[d-	gone
=25	=25
8d-]	_
8r	.
4r	.
2r	.
=26	=26
2r	.
8d-	you
4.d-	were
=27	=27
4.B	gone
4.A	gone
4G	gone
=28	=28
1r	.
=29	=29
1r	.
=30	=30
8r	.
8[d	I
8d]	_
8d	had
8d	too
8d	much
8d	to
8[f	dream
=31	=31
8f]	_
8[d	last
8d]	_
8[d	night
4d]	_
4r	.
=32	=32
2r	.
8A	too
8A	much
8A	to
8[B	dream
=33	=33
4B]	_
4r	.
2r	.
=34	=34
8r	.
8[d	I'm
8d]	_
8d	not
8d	rea-
8d	-dy
8d	to
8[f	face
=35	=35
8f]	_
8d	the
4d	light
2r	.
=36	=36
8r	.
8[A	I
8A]	_
8A	had
8A	too
8G	much
8F#	to
8[A	dream
=37	=37
8A]	_
8r	.
4r	.
4r	.
4C#	last
=38	=38
4D	night
4r	.
2r	.
=39	=39
2r	.
4r	.
4D	Last
=40	=40
4D	night.
4r	.
2r	.
=41	=41
1r	.
=42	=42
4.r	.
8D	The
4F	room
8G	was
8[A	emp
=43	=43
8A]	_
8A	ty
4r	.
8r	.
8G	as
4F	I
=44	=44
8G	stagg-
4.E	-ered
8E	from
4D	my
8[E	bed
=45	=45
4E]	_
4r	.
2r	.
=46	=46
4.r	.
8D	I
8F	could
4G	not
8[A	bear
=47	=47
8A]	_
8r	.
8r	.
8A	the
8G	i-
4.F	-mage
=48	=48
4G	rac-
4E	-ing
8E	through
4D	my
8[E	head
=49	=49
4E]	_
4r	.
2r	.
=50	=50
4r	.
8B-	You
8[B-	were
4B-]	_
4B-	so
=51	=51
4B-	real
8r	.
8B-	that
8c	I
8B-	could
8r	.
8[B-	feel
=52	=52
8B-]	_
8A	your
4r	.
8r	.
4F	ea-
8G	-ger-
=53	=53
4.A	-ness
8r	.
2r	.
=54	=54
4r	.
4B-	And
4B-	when
8B-	you
8[B-	raised
=55	=55
4B-]	_
8B-	your
8[c	lips
8c]	_
8r	.
8r	.
8B-	for
=56	=56
8B-	me
4A	to
8[A	kiss
2A]	_
=57	=57
4B	_
2r	.
4r	.
=58	=58
2r	.
8r	.
4d	came
8d	the
=59	=59
4d	dawn
4r	.
2r	.
=60	=60
2r	.
8d	and
8d	you
8d	were
8[d-	gone
=61	=61
8d-]	_
8r	.
4r	.
2r	.
=62	=62
2r	.
8d-	you
4.d-	were
=63	=63
4.B	gone
4.A	gone
4G	gone
=64	=64
1r	.
=65	=65
1r	.
=66	=66
8r	.
8[d	I
8d]	_
8d	had
8d	too
8d	much
8d	to
8[f	dream
=67	=67
8f]	_
8[d	last
8d]	_
8[d	night
4d]	_
4r	.
=68	=68
2r	.
8A	too
8A	much
8A	to
8[B	dream
=69	=69
4B]	_
4r	.
2r	.
=70	=70
8r	.
8[d	I'm
8d]	_
8d	not
8d	rea-
8d	-dy
8d	to
8[f	face
=71	=71
8f]	_
8d	the
4d	light
2r	.
=72	=72
8r	.
8[A	I
8A]	_
8A	had
8A	too
8G	much
8F#	to
8[A	dream
=73	=73
8A]	_
8r	.
4r	.
4r	.
4C#	last
=74	=74
4D	night
4r	.
2r	.
=75	=75
2r	.
4r	.
4C#	Last
=76	=76
4D	night.
4r	.
2r	.
=77	=77
1r	.
=78	=78
8r	.
8[d	I
8d]	_
8d	had
8d	too
8d	much
8d	to
8[f	dream
=79	=79
8f]	_
8[d	last
8d]	_
8[d	night
4d]	_
4r	.
=80	=80
2r	.
8A	too
8A	much
8A	to
8[B	dream
=81	=81
4B]	_
4r	.
2r	.
=82	=82
8r	.
8[d	I'm
8d]	_
8d	not
8d	rea-
8d	-dy
8d	to
8[f	face
=83	=83
8f]	_
8d	the
4d	light
2r	.
=84	=84
8r	.
8[A	I
8A]	_
8A	had
8A	too
8G	much
8F#	to
8[A	dream
=85	=85
8A]	_
8r	.
4r	.
4r	.
4C#	last
=86	=86
4D	night
4r	.
2r	.
=87	=87
2r	.
4r	.
4C#	Last
=88	=88
4D	night.
4r	.
2r	.
=89	=89
8r	.
4.d	Oh
8d	too
8d	much
8c	to
8[d	dream
=90	=90
4d]	_
4r	.
2r	.
=91	=91
4r	.
4d	Oh
8d	too
8d	much
8c	to
8[d	dream
=92	=92
4d]	_
4r	.
2r	.
=93	=93
2r	.
8d	Too
8d	much
8d	to
8[f	dream
=94	=94
8f]	_
4d	last
8[d	night
8d]	_
8r	.
4r	.
=95	=95
8r	.
4.d	Oh
8d	too
8d	much
8c	to
8[d	dream
=96	=96
4d]	_
4r	.
2r	.
=97	=97
4r	.
4d	Oh
8d	too
8d	much
8c	to
8[d	dream
=98	=98
4d]	_
4r	.
2r	.
=99	=99
8r	.
4.d	Oh
8d	too
8d	much
8c	to
8[d	dream
=100	=100
4d]	_
4r	.
4.r	.
8[d	Oh
=101	=101
8d]	_
8d	I
4d	had
8d	too
8d	much
8c	to
8[d	dream
=102	=102
4d]	_
4r	.
2r	.
=103	=103
4r	.
4d	Oh
8d	too
8d	much
8c	to
8[d	dream
=104	=104
4d]	_
4r	.
2r	.
=105	=105
1r	.
r;	.
r;	.
*-	*-
!!!ENC: Nathaniel Condit-Schultz